X:385
T: Tail Toddle
M: C|
L: 1/8
K: D
A|:"D"d2 (f<d) "A"g2 (f<e)|"D"d2 (f<d) e2"A" (c<A)|"D"d2 (f<d) "A"g2 (f<e)|"D"fgaf e2"A" (c<A):|
"G"g2 (d<B) B2 (d<B)|"G"g2 (d<B) "A"e2 (c<A)|"G"g2 (d<B) B2 (d<B)|"A"A2 (a<f) e2 (c<A):|

